X: 4874
T: Braes Of Glendochart, The
R: reel
M: 4/4
K: Dmixolydian
FD AD BDAF|(3GFG cG ECAG|(3FED AD BDAD|1 Add^c dcAG:|2 Add^c d3e||
(3fga da fdaf|egcg ecge|(3fga da fdad|dcAG FADg|
fada fdaf|egcg efge|(3aba ge fded|(3B^cd AG FDDE||

